R/rhodecode.com icon.svg

<?xml version="1.0" ?>
<svg xmlns="http://www.w3.org/2000/svg" version="1.0" viewBox="0 0 1029 1029">
	<path fill="#00ace8" d="M482 2c-3 .5-10 1.5-15.5 2.4-5.5.8-11.8 1.8-14 2.1-2.2.4-5.1.8-6.5 1-16.9 2.7-22.1 3.5-25.5 4-2.2.4-7.6 1.3-12 2-4.4.8-9.6 1.7-11.5 2-3.8.6-42.2 7.4-45.5 8-1.1.2-3.1.6-4.5.9-1.3.3-4.2.8-6.4 1.2-2.2.3-4.3.7-4.7 1-.3.2-2.1.6-4 .8-1.9.3-4.5.7-5.9 1s-4.1.9-6 1.2c-6.7 1.2-63.6 13.5-71.5 15.6-4.4 1.1-8.7 2.1-9.5 2.3s-3.5.8-6 1.5c-4.4 1.2-5.7 1.5-10.2 2.5-13.6 2.9-51.9 13.7-78.8 22.2-21.5 6.7-60.6 20.8-74.5 26.8-1.6.8-6.1 2.7-9.8 4.3-8.9 3.8-15.1 9-18.4 15.5-2.4 4.9-10.7 28.8-11.7 33.9-.2 1.3-1.4 5.7-2.5 9.9-1.2 4.2-2.8 10.9-3.6 15s-1.6 8.4-1.9 9.5c-.2 1.2-.7 3.9-1 6-.3 2.2-.8 5-1.1 6.4-.7 3.9-1.7 11.6-3 22.5C14 245 14 300 16.4 320c.2 1.9.7 6.7 1 10.5.4 3.9.8 8.1 1.1 9.5.2 1.4.7 4.7 1 7.3.7 6.5 4 26.3 6 36.2.9 4.4 1.9 9.1 2.1 10.5 4.8 24.3 24 86.5 32.4 104.5.5 1.1 3.2 7.5 5.9 14.1 24.4 59.1 59.9 121.9 103.4 182.9 14 19.6 43.5 57.8 55.3 71.5 1.2 1.4 6.8 7.9 12.4 14.5 28.7 33.5 48.6 55 81.6 87.9 15.2 15.3 36.2 35.5 49 47.2 13.7 12.6 22.6 20.7 26.4 24 2.5 2.1 5.4 4.8 6.5 5.9s4.7 4.2 8 7c3.3 2.7 6.2 5.2 6.5 5.5s3.7 3.2 7.5 6.5c3.9 3.3 7.2 6.2 7.5 6.5.4.5 19.3 16.1 25.4 21 1 .8 2.3 2 3 2.5.6.6 6.3 5.3 12.6 10.4s13.5 10.9 15.9 13c13.1 10.7 11.8 10.1 21.2 10.1 6.8 0 8.9-.4 10.5-1.8 1-1 3.7-3.1 5.9-4.7 2.2-1.7 4.2-3.2 4.5-3.5.5-.5 8.2-6.7 12-9.7 8.3-6.5 50.3-41.4 60.5-50.4 11.7-10.2 21.2-18.6 22.5-19.9.9-.8 4.9-4.4 8.9-8s8.7-7.9 10.5-9.5c1.8-1.7 9.7-9.1 17.6-16.5 16.9-15.7 61.8-60.7 73.6-73.6 4.5-4.9 9.9-10.8 12.1-13.1s6.9-7.5 10.4-11.4c3.5-4 6.9-7.7 7.4-8.3 2.9-3 25.5-29.8 35.6-42.1 83.5-102.2 142.3-206.7 174.3-309.6 3.9-12.8 10-34.6 11.1-39.7.2-.9 1.5-6.9 2.9-13.2s2.8-12.7 3.1-14.3c.3-1.5.7-3.7.9-5 1-5 3.5-20.5 4.1-25.2.4-2.8.8-6.2 1.1-7.6.2-1.4.6-5.2 1-8.5.3-3.2.7-7.5.9-9.4 2.6-24.6 2.6-80.6 0-100.5-.2-1.7-.9-7.3-1.6-12.5-.6-5.2-1.3-10.4-1.5-11.5-.2-1-.6-3.7-1-6-2.7-19.2-12.1-53.3-19.6-71.3-3.3-8-8.4-13.3-14.7-15.3-2-.6-4.1-1.5-4.6-2-.6-.4-10.3-4.4-21.5-8.9-28-11.1-74.5-26.6-104-34.6-3-.8-6.9-1.9-8.6-2.5-3.5-1-56.9-14.6-60.6-15.3-1.3-.3-9.5-2.1-18.3-4.1s-17.1-3.9-18.5-4.1c-1.4-.3-3.3-.7-4.2-1-1-.3-2.9-.7-4.4-1-1.4-.3-12.5-2.5-24.7-4.9s-23.3-4.6-24.7-4.9c-1.4-.2-8.8-1.5-16.5-2.9s-22.3-4-32.5-5.7c-10.2-1.6-19.6-3.2-21-3.4-1.4-.3-7.4-1.2-13.5-2.1-6-.9-12.1-1.8-13.5-2-7-1.1-32.5-4.5-39.5-5.3C520.9 1.1 489.7 1 482 2m43 79.4c1.4.3 4.5.8 7 1.1s5.6.8 7 1c1.4.3 4.8.7 7.5 1 4.3.5 10.9 1.5 20.5 3 1.4.2 4.5.7 7 1 4.6.6 20.8 3.1 27 4.1 16.3 2.6 22.3 3.6 35 5.8 8 1.4 15.4 2.8 16.5 3s4 .7 6.5 1.1 5.4.9 6.5 1.1c12.5 2.6 17.5 3.6 20 3.9 1.7.3 10.4 2.1 19.5 4 9.1 2 17.6 3.8 19 4.1s5.4 1.2 9 2c3.6.9 7.6 1.8 9 2 6.5 1.2 47.2 11.8 61 15.9 8.5 2.5 16.4 4.8 17.6 5 12.6 2.8 83.5 28.4 86.8 31.3 1 .9 2.5 3.1 3.2 4.7 1.2 3 4.7 17.5 5.8 24.5.4 1.9.8 4.4 1 5.6s.7 5.7 1.1 10 .9 9 1.1 10.4c2.3 13.3 2.3 71.9-.1 96.5-.7 7.6-3 26.1-4 31.5-.5 3.2-2.6 14.7-3.2 17.9-4.3 23.5-20.3 73.8-30.4 95.8-1 2.4-1.9 4.5-1.9 4.7 0 1.3-18 40.5-24.5 53.6-6.4 12.8-17.8 34-25.2 47-9.8 17.1-39.1 62.9-42.8 66.8-1 1.1-2.1 1.1-5.6.2-2.4-.7-5.5-1.4-6.9-1.7-5.8-1-44.6-11.6-63-17.3-39.2-11.9-102.9-35.1-130-47.3-3-1.3-14-6.2-24.5-10.8-18.9-8.3-80.5-38.8-90-44.6-2.7-1.6-9.9-5.8-16-9.2-6-3.4-11.7-6.6-12.5-7.1s-7.3-4.5-14.5-8.8c-46.1-27.8-88.5-58.3-129.9-93.2-30.2-25.4-72.7-67.6-95.6-94.9-2.5-3-5.4-6.3-6.5-7.5s-3.6-4.1-5.5-6.6-4.1-5.1-4.8-5.9c-3.2-3.3-30.6-40.7-37.9-51.6-12.4-18.7-23.1-35.5-26.1-41.5-.7-1.4-3.5-6.3-6.2-11-3.5-6.1-4.6-8.8-3.8-9.7 2.5-3 57.5-22.8 93.8-33.7 31-9.3 70.7-19 110-27.1 15.1-3 28.6-5.8 30-6.2 1.4-.3 3.4-.7 4.5-.8 1.1-.2 6.1-1 11-2 5-.9 9.7-1.8 10.5-2 1.7-.3 31.2-5.4 35-6 1.4-.3 4.2-.7 6.4-1 2.1-.4 4.6-.8 5.5-1 3.1-.5 9.6-1.6 12.6-1.9 1.7-.2 7.7-1.1 13.5-2 5.8-.8 12.2-1.8 14.2-2 2.1-.3 10.9-1.5 19.5-2.6 8.7-1.2 17.8-2.4 20.3-2.7s4.6-.6 4.8-.8c.5-.4 22.7.4 25.2.9"/>
	<path fill="#00ace8" d="M785.1 239.9c-2.9 4.7-7 11.5-9.2 15-2.7 4.4-3.9 7.4-3.9 10v3.8l9.3-.2c12.8-.1 12.5-.3 12.3 5.7-.2 5.7.8 6.6 7.2 6l3.9-.4-.3-4.6c-.2-5.4.4-6.7 3.1-6.7 1.2 0 2.1-.9 2.5-2.5 1-3.9.1-5.9-2.9-6.2l-2.6-.3v-28l-7.1-.1h-7zm8.5 10.6-.1 9.5h-5.2c-2.9 0-5.3-.2-5.3-.4s1.8-3.4 4-7.1c2.3-3.6 4.5-7.7 5-9.1.5-1.3 1.1-2.4 1.3-2.4s.3 4.3.3 9.5m27.3-18.6c-.3 1.3-.8 5.1-1.8 13.6-.6 4.9-1.3 9.5-1.5 10.1-.3.7 1.9 1.1 6.4 1.2 10.8.1 15.6 4 13.1 10.5-1.6 4.2-11.6 5.9-18.3 3.2-1.3-.5-1.9 0-2.4 2.2-.3 1.5-.8 3.6-1 4.5-.4 1.3.7 1.9 5.2 2.8 10.2 2.1 19.3 0 24.6-5.6 2.6-2.9 5-9.4 4.3-11.7-.2-.7-.6-2.4-.9-3.9-1.3-5.6-7-9.6-15.1-10.3-2.2-.2-4.3-.4-4.7-.4-1.1-.1-1-4.3.1-6 .6-.9 3.5-1.3 9.7-1.5l8.9-.1v-9l-13.3-.1c-7.2 0-13.3.2-13.3.5m-138.7 42.3.3 13.3h7.5l7.5.1v49.2l.1 49.2-4.1.1c-2.2.1-5.7.1-7.7.1H682V413h60.6l-.1-13.3v-13.2l-6.8-.2c-3.8 0-7.1-.4-7.4-.7s-.6-8.7-.7-18.7c-.1-20.9-.4-20.2 10-25.3 10.1-4.9 18.6-3.1 22.8 4.9 2 3.8 2.1 5.7 2.3 34 .1 16.5.2 30.6.3 31.2 0 1 5.2 1.3 22.5 1.3H808v-26.9h-13.7c-1-.1-1.3-5.3-1.3-22.4 0-16.6-.4-23.7-1.5-28.1-4.3-16.3-15.2-24.7-33.1-25.3-10.8-.3-16.5 1.1-24.4 6.1-3 1.9-5.7 3.3-6 3.1s-.4-13.4-.4-29.4l.2-29.1h-45.9zM538 278.3v13.4l7.1-.2c3.9 0 7.3.3 7.6.8.6 1 .6 92.7 0 93.4-.2.2-3.6.4-7.6.5l-7.1.1v3.9c-.1 2.1-.1 7.6-.1 12.3s0 8.9.1 9.5c0 1.2 61 1.4 61.1.2s.1-22.5 0-24.5c-.1-1.5-.9-1.7-6.6-1.4l-6.5.3-.1-3.5c-.3-21.6-.3-27.4.2-28.3.4-.7 4.6-.9 11.2-.6 9.6.4 11.1.7 15.3 3.4 6.3 3.8 9 9.2 11.4 22.5 1.9 10.8 2.2 12.4 4.1 25.1l1.2 7.8h43.2l-.2-12.7c0-7.1-.1-13.6-.2-14.5-.1-1.3-1.1-1.6-5.6-1.6-3 .1-5.7-.1-6.1-.4-.3-.4-2.1-6.4-4-13.5-3.9-14.2-6.7-19.9-12-23.9l-3.5-2.7 5.8-3.7c9.3-5.9 15-13.6 16.9-23 4-20.2-4.8-38.3-22.7-46.8-10.5-4.9-13.6-5.2-59.9-5.2h-43zm74.2 14.1c10.9 1.5 17 7.9 17 17.7-.1 8-4.5 13.6-12.5 16-4.9 1.5-30.7 1.9-30.8.5-.1-1.6-.1-32.9 0-34.1s18.5-1.2 26.3-.1"/>
</svg>

<?xml version="1.0" ?>
<svg xmlns="http://www.w3.org/2000/svg" viewBox="0 0 1029 1029">
	<path d="M 482.0,2.0 C 479.0,2.5 472.0,3.5 466.5,4.4 C 461.0,5.2 454.7,6.2 452.5,6.5 C 450.3,6.9 447.4,7.3 446.0,7.5 C 429.1,10.2 423.9,11.0 420.5,11.5 C 418.3,11.9 412.9,12.8 408.5,13.5 C 404.1,14.3 398.9,15.2 397.0,15.5 C 393.2,16.1 354.8,22.9 351.5,23.5 C 350.4,23.7 348.4,24.1 347.0,24.4 C 345.7,24.7 342.8,25.2 340.6,25.6 C 338.4,25.9 336.3,26.3 335.9,26.6 C 335.6,26.8 333.8,27.2 331.9,27.4 C 330.0,27.7 327.4,28.1 326.0,28.4 C 324.6,28.7 321.9,29.3 320.0,29.6 C 313.3,30.8 256.4,43.1 248.5,45.2 C 244.1,46.3 239.8,47.3 239.0,47.5 C 238.2,47.7 235.5,48.3 233.0,49.0 C 228.6,50.2 227.3,50.5 222.8,51.5 C 209.2,54.4 170.9,65.2 144.0,73.7 C 122.5,80.4 83.4,94.5 69.5,100.5 C 67.9,101.3 63.4,103.2 59.7,104.8 C 50.8,108.6 44.6,113.8 41.3,120.3 C 38.9,125.2 30.6,149.1 29.6,154.2 C 29.4,155.5 28.2,159.9 27.1,164.1 C 25.9,168.3 24.3,175.0 23.5,179.1 C 22.7,183.2 21.9,187.5 21.6,188.6 C 21.4,189.8 20.9,192.5 20.6,194.6 C 20.3,196.8 19.8,199.6 19.5,201.0 C 18.8,204.9 17.8,212.6 16.5,223.5 C 14.0,245.0 14.0,300.0 16.4,320.0 C 16.6,321.9 17.1,326.7 17.4,330.5 C 17.8,334.4 18.2,338.6 18.5,340.0 C 18.7,341.4 19.2,344.7 19.5,347.3 C 20.2,353.8 23.5,373.6 25.5,383.5 C 26.4,387.9 27.4,392.6 27.6,394.0 C 32.4,418.3 51.6,480.5 60.0,498.5 C 60.5,499.6 63.2,506.0 65.9,512.6 C 90.3,571.7 125.8,634.5 169.3,695.5 C 183.3,715.1 212.8,753.3 224.6,767.0 C 225.8,768.4 231.4,774.9 237.0,781.5 C 265.7,815.0 285.6,836.5 318.6,869.4 C 333.8,884.7 354.8,904.9 367.6,916.6 C 381.3,929.2 390.2,937.3 394.0,940.6 C 396.5,942.7 399.4,945.4 400.5,946.5 C 401.6,947.6 405.2,950.7 408.5,953.5 C 411.8,956.2 414.7,958.7 415.0,959.0 C 415.3,959.3 418.7,962.2 422.5,965.5 C 426.4,968.8 429.7,971.7 430.0,972.0 C 430.4,972.5 449.3,988.1 455.4,993.0 C 456.4,993.8 457.7,995.0 458.4,995.5 C 459.0,996.1 464.7,1000.8 471.0,1005.9 C 477.3,1011.0 484.5,1016.8 486.9,1018.9 C 500.0,1029.6 498.7,1029.0 508.1,1029.0 C 514.9,1029.0 517.0,1028.6 518.6,1027.2 C 519.6,1026.2 522.3,1024.1 524.5,1022.5 C 526.7,1020.8 528.7,1019.3 529.0,1019.0 C 529.5,1018.5 537.2,1012.3 541.0,1009.3 C 549.3,1002.8 591.3,967.9 601.5,958.9 C 613.2,948.7 622.7,940.3 624.0,939.0 C 624.9,938.2 628.9,934.6 632.9,931.0 C 636.9,927.4 641.6,923.1 643.4,921.5 C 645.2,919.8 653.1,912.4 661.0,905.0 C 677.9,889.3 722.8,844.3 734.6,831.4 C 739.1,826.5 744.5,820.6 746.7,818.3 C 748.9,816.0 753.6,810.8 757.1,806.9 C 760.6,802.9 764.0,799.2 764.5,798.6 C 767.4,795.6 790.0,768.8 800.1,756.5 C 883.6,654.3 942.4,549.8 974.4,446.9 C 978.3,434.1 984.4,412.3 985.5,407.2 C 985.7,406.3 987.0,400.3 988.4,394.0 C 989.8,387.7 991.2,381.3 991.5,379.7 C 991.8,378.2 992.2,376.0 992.4,374.7 C 993.4,369.7 995.9,354.2 996.5,349.5 C 996.9,346.7 997.3,343.3 997.6,341.9 C 997.8,340.5 998.2,336.7 998.6,333.4 C 998.9,330.2 999.3,325.9 999.5,324.0 C 1002.1,299.4 1002.1,243.4 999.5,223.5 C 999.3,221.8 998.6,216.2 997.9,211.0 C 997.3,205.8 996.6,200.6 996.4,199.5 C 996.2,198.5 995.8,195.8 995.4,193.5 C 992.7,174.3 983.3,140.2 975.8,122.2 C 972.5,114.2 967.4,108.9 961.1,106.9 C 959.1,106.3 957.0,105.4 956.5,104.9 C 955.9,104.5 946.2,100.5 935.0,96.0 C 907.0,84.9 860.5,69.4 831.0,61.4 C 828.0,60.6 824.1,59.5 822.4,58.9 C 818.9,57.9 765.5,44.3 761.8,43.6 C 760.5,43.3 752.3,41.5 743.5,39.5 C 734.7,37.5 726.4,35.6 725.0,35.4 C 723.6,35.1 721.7,34.7 720.8,34.4 C 719.8,34.1 717.9,33.7 716.4,33.4 C 715.0,33.1 703.9,30.9 691.7,28.5 C 679.5,26.1 668.4,23.9 667.0,23.6 C 665.6,23.4 658.2,22.1 650.5,20.7 C 642.8,19.3 628.2,16.7 618.0,15.0 C 607.8,13.4 598.4,11.8 597.0,11.6 C 595.6,11.3 589.6,10.4 583.5,9.5 C 577.5,8.6 571.4,7.7 570.0,7.5 C 563.0,6.4 537.5,3.0 530.5,2.2 C 520.9,1.1 489.7,1.0 482.0,2.0 M 525.0,81.4 C 526.4,81.7 529.5,82.2 532.0,82.5 C 534.5,82.8 537.6,83.3 539.0,83.5 C 540.4,83.8 543.8,84.2 546.5,84.5 C 550.8,85.0 557.4,86.0 567.0,87.5 C 568.4,87.7 571.5,88.2 574.0,88.5 C 578.6,89.1 594.8,91.6 601.0,92.6 C 617.3,95.2 623.3,96.2 636.0,98.4 C 644.0,99.8 651.4,101.2 652.5,101.4 C 653.6,101.6 656.5,102.1 659.0,102.5 C 661.5,102.9 664.4,103.4 665.5,103.6 C 678.0,106.2 683.0,107.2 685.5,107.5 C 687.2,107.8 695.9,109.6 705.0,111.5 C 714.1,113.5 722.6,115.3 724.0,115.6 C 725.4,115.9 729.4,116.8 733.0,117.6 C 736.6,118.5 740.6,119.4 742.0,119.6 C 748.5,120.8 789.2,131.4 803.0,135.5 C 811.5,138.0 819.4,140.3 820.6,140.5 C 833.2,143.3 904.1,168.9 907.4,171.8 C 908.4,172.7 909.9,174.9 910.6,176.5 C 911.8,179.5 915.3,194.0 916.4,201.0 C 916.8,202.9 917.2,205.4 917.4,206.6 C 917.6,207.8 918.1,212.3 918.5,216.6 C 918.9,220.9 919.4,225.6 919.6,227.0 C 921.9,240.3 921.9,298.9 919.5,323.5 C 918.8,331.1 916.5,349.6 915.5,355.0 C 915.0,358.2 912.9,369.7 912.3,372.9 C 908.0,396.4 892.0,446.7 881.9,468.7 C 880.9,471.1 880.0,473.2 880.0,473.4 C 880.0,474.7 862.0,513.9 855.5,527.0 C 849.1,539.8 837.7,561.0 830.3,574.0 C 820.5,591.1 791.2,636.9 787.5,640.8 C 786.5,641.9 785.4,641.9 781.9,641.0 C 779.5,640.3 776.4,639.6 775.0,639.3 C 769.2,638.3 730.4,627.7 712.0,622.0 C 672.8,610.1 609.1,586.9 582.0,574.7 C 579.0,573.4 568.0,568.5 557.5,563.9 C 538.6,555.6 477.0,525.1 467.5,519.3 C 464.8,517.7 457.6,513.5 451.5,510.1 C 445.5,506.7 439.8,503.5 439.0,503.0 C 438.2,502.5 431.7,498.5 424.5,494.2 C 378.4,466.4 336.0,435.9 294.6,401.0 C 264.4,375.6 221.9,333.4 199.0,306.1 C 196.5,303.1 193.6,299.8 192.5,298.6 C 191.4,297.4 188.9,294.5 187.0,292.0 C 185.1,289.5 182.9,286.9 182.2,286.1 C 179.0,282.8 151.6,245.4 144.3,234.5 C 131.9,215.8 121.2,199.0 118.2,193.0 C 117.5,191.6 114.7,186.7 112.0,182.0 C 108.5,175.9 107.4,173.2 108.2,172.3 C 110.7,169.3 165.7,149.5 202.0,138.6 C 233.0,129.3 272.7,119.6 312.0,111.5 C 327.1,108.5 340.6,105.7 342.0,105.3 C 343.4,105.0 345.4,104.6 346.5,104.5 C 347.6,104.3 352.6,103.5 357.5,102.5 C 362.5,101.6 367.2,100.7 368.0,100.5 C 369.7,100.2 399.2,95.1 403.0,94.5 C 404.4,94.2 407.2,93.8 409.4,93.5 C 411.5,93.1 414.0,92.7 414.9,92.5 C 418.0,92.0 424.5,90.9 427.5,90.6 C 429.2,90.4 435.2,89.5 441.0,88.6 C 446.8,87.8 453.2,86.8 455.2,86.6 C 457.3,86.3 466.1,85.1 474.7,84.0 C 483.4,82.8 492.5,81.6 495.0,81.3 C 497.5,81.0 499.6,80.7 499.8,80.5 C 500.3,80.1 522.5,80.9 525.0,81.4 L 525.0,81.4"/>
	<path d="M 785.1,239.9 C 782.2,244.6 778.1,251.4 775.9,254.9 C 773.2,259.3 772.0,262.3 772.0,264.9 L 772.0,268.7 L 781.3,268.5 C 794.1,268.4 793.8,268.2 793.6,274.2 C 793.4,279.9 794.4,280.8 800.8,280.2 L 804.7,279.8 L 804.4,275.2 C 804.2,269.8 804.8,268.5 807.5,268.5 C 808.7,268.5 809.6,267.6 810.0,266.0 C 811.0,262.1 810.1,260.1 807.1,259.8 L 804.5,259.5 L 804.5,231.5 L 797.4,231.4 L 790.4,231.4 L 785.1,239.9 M 793.6,250.5 L 793.5,260.0 L 788.3,260.0 C 785.4,260.0 783.0,259.8 783.0,259.6 C 783.0,259.4 784.8,256.2 787.0,252.5 C 789.3,248.9 791.5,244.8 792.0,243.4 C 792.5,242.1 793.1,241.0 793.3,241.0 C 793.5,241.0 793.6,245.3 793.6,250.5 L 793.6,250.5 M 820.9,231.9 C 820.6,233.2 820.1,237.0 819.1,245.5 C 818.5,250.4 817.8,255.0 817.6,255.6 C 817.3,256.3 819.5,256.7 824.0,256.8 C 834.8,256.9 839.6,260.8 837.1,267.3 C 835.5,271.5 825.5,273.2 818.8,270.5 C 817.5,270.0 816.9,270.5 816.4,272.7 C 816.1,274.2 815.6,276.3 815.4,277.2 C 815.0,278.5 816.1,279.1 820.6,280.0 C 830.8,282.1 839.9,280.0 845.2,274.4 C 847.8,271.5 850.2,265.0 849.5,262.7 C 849.3,262.0 848.9,260.3 848.6,258.8 C 847.3,253.2 841.6,249.2 833.5,248.5 C 831.3,248.3 829.2,248.1 828.8,248.1 C 827.7,248.0 827.8,243.8 828.9,242.1 C 829.5,241.2 832.4,240.8 838.6,240.6 L 847.5,240.5 L 847.5,231.5 L 834.2,231.4 C 827.0,231.4 820.9,231.6 820.9,231.9 L 820.9,231.9 M 682.2,274.2 L 682.5,287.5 L 690.0,287.5 L 697.5,287.6 L 697.5,336.8 L 697.6,386.0 L 693.5,386.1 C 691.3,386.2 687.8,386.2 685.8,386.2 L 682.0,386.2 L 682.0,413.0 L 742.6,413.0 L 742.5,399.7 L 742.5,386.5 L 735.7,386.3 C 731.9,386.3 728.6,385.9 728.3,385.6 C 728.0,385.3 727.7,376.9 727.6,366.9 C 727.5,346.0 727.2,346.7 737.6,341.6 C 747.7,336.7 756.2,338.5 760.4,346.5 C 762.4,350.3 762.5,352.2 762.7,380.5 C 762.8,397.0 762.9,411.1 763.0,411.7 C 763.0,412.7 768.2,413.0 785.5,413.0 L 808.0,413.0 L 808.0,386.1 L 794.3,386.1 C 793.3,386.0 793.0,380.8 793.0,363.7 C 793.0,347.1 792.6,340.0 791.5,335.6 C 787.2,319.3 776.3,310.9 758.4,310.3 C 747.6,310.0 741.9,311.4 734.0,316.4 C 731.0,318.3 728.3,319.7 728.0,319.5 C 727.7,319.3 727.6,306.1 727.6,290.1 L 727.8,261.0 L 681.9,261.0 L 682.2,274.2 L 682.2,274.2 M 538.0,278.3 L 538.0,291.7 L 545.1,291.5 C 549.0,291.5 552.4,291.8 552.7,292.3 C 553.3,293.3 553.3,385.0 552.7,385.7 C 552.5,385.9 549.1,386.1 545.1,386.2 L 538.0,386.3 L 538.0,390.2 C 537.9,392.3 537.9,397.8 537.9,402.5 C 537.9,407.2 537.9,411.4 538.0,412.0 C 538.0,413.2 599.0,413.4 599.1,412.2 C 599.2,411.0 599.2,389.7 599.1,387.7 C 599.0,386.2 598.2,386.0 592.5,386.3 L 586.0,386.6 L 585.9,383.1 C 585.6,361.5 585.6,355.7 586.1,354.8 C 586.5,354.1 590.7,353.9 597.3,354.2 C 606.9,354.6 608.4,354.9 612.6,357.6 C 618.9,361.4 621.6,366.8 624.0,380.1 C 625.9,390.9 626.2,392.5 628.1,405.2 L 629.3,413.0 L 672.5,413.0 L 672.3,400.3 C 672.3,393.2 672.2,386.7 672.1,385.8 C 672.0,384.5 671.0,384.2 666.5,384.2 C 663.5,384.3 660.8,384.1 660.4,383.8 C 660.1,383.4 658.3,377.4 656.4,370.3 C 652.5,356.1 649.7,350.4 644.4,346.4 L 640.9,343.7 L 646.7,340.0 C 656.0,334.1 661.7,326.4 663.6,317.0 C 667.6,296.8 658.8,278.7 640.9,270.2 C 630.4,265.3 627.3,265.0 581.0,265.0 L 538.0,265.0 L 538.0,278.3 L 538.0,278.3 M 612.2,292.4 C 623.1,293.9 629.2,300.3 629.2,310.1 C 629.1,318.1 624.7,323.7 616.7,326.1 C 611.8,327.6 586.0,328.0 585.9,326.6 C 585.8,325.0 585.8,293.7 585.9,292.5 C 586.0,291.3 604.4,291.3 612.2,292.4 L 612.2,292.4"/>
</svg>
